images/item-product-item2.svg

<svg width="64" height="64" viewBox="0 0 64 64" fill="none" xmlns="http://www.w3.org/2000/svg">
<circle cx="32" cy="32" r="32" fill="#61AA45"/>
<g clip-path="url(#clip0_57_593)">
<path opacity="0.935" fill-rule="evenodd" clip-rule="evenodd" d="M32.4297 11.9609C32.8463 11.9609 33.263 11.9609 33.6797 11.9609C35.0039 12.6466 35.3294 13.6622 34.6562 15.0078C33.9998 15.7934 33.1926 16.0018 32.2344 15.6328C31.1276 16.7396 30.0209 17.8464 28.9141 18.9531C34.5841 16.8193 40.079 17.2099 45.3984 20.125C45.9786 20.4736 46.5384 20.8512 47.0781 21.2578C47.4297 20.9062 47.7812 20.5547 48.1328 20.2031C48.383 20.0873 48.6434 20.0612 48.9141 20.125C49.9194 21.1434 50.935 22.146 51.9609 23.1328C51.9609 23.3412 51.9609 23.5495 51.9609 23.7578C50.9893 24.7686 49.9997 25.7712 48.9922 26.7656C48.7909 26.8633 48.5826 26.8894 48.3672 26.8438C47.2604 25.8412 46.2057 24.7865 45.2031 23.6797C45.1575 23.4643 45.1836 23.256 45.2812 23.0547C45.5547 22.7812 45.8281 22.5078 46.1016 22.2344C41.4314 18.9814 36.3533 18.1481 30.8672 19.7344C29.226 20.2424 27.7156 20.9977 26.3359 22C27.0084 23.5077 26.748 24.8358 25.5547 25.9844C24.4257 26.8082 23.2278 26.9254 21.9609 26.3359C18.7797 31.1868 18.1156 36.3691 19.9688 41.8828C20.5218 43.406 21.277 44.8123 22.2344 46.1016C22.54 45.7435 22.8916 45.444 23.2891 45.2031C23.4193 45.151 23.5495 45.151 23.6797 45.2031C24.7865 46.2057 25.8412 47.2604 26.8438 48.3672C26.8894 48.5826 26.8633 48.7909 26.7656 48.9922C25.7712 49.9997 24.7686 50.9893 23.7578 51.9609C23.5495 51.9609 23.3412 51.9609 23.1328 51.9609C22.0938 50.987 21.0911 49.9713 20.125 48.9141C20.0612 48.6434 20.0873 48.383 20.2031 48.1328C20.5547 47.7812 20.9062 47.4297 21.2578 47.0781C18.0254 42.5715 16.9447 37.5845 18.0156 32.1172C18.2839 31.0271 18.5964 29.9594 18.9531 28.9141C17.8464 30.0209 16.7396 31.1276 15.6328 32.2344C16.0154 33.2474 15.781 34.0807 14.9297 34.7344C13.5953 35.3132 12.6057 34.9616 11.9609 33.6797C11.9609 33.263 11.9609 32.8463 11.9609 32.4297C12.5554 31.2627 13.4929 30.8591 14.7734 31.2188C16.7396 29.2526 18.7057 27.2865 20.6719 25.3203C20.5251 24.9455 20.3949 24.5549 20.2812 24.1484C20.0433 22.1354 20.8897 20.8463 22.8203 20.2812C23.263 20.2291 23.7057 20.2291 24.1484 20.2812C24.5477 20.4143 24.9383 20.5445 25.3203 20.6719C27.2865 18.7057 29.2526 16.7396 31.2188 14.7734C30.8591 13.4929 31.2627 12.5554 32.4297 11.9609ZM32.7422 13.2891C33.4845 13.2104 33.758 13.5229 33.5625 14.2266C33.1507 14.6195 32.7861 14.5674 32.4688 14.0703C32.4048 13.7554 32.496 13.495 32.7422 13.2891ZM23.0547 21.5703C24.755 21.5644 25.4972 22.3977 25.2812 24.0703C24.8759 25.009 24.1598 25.4387 23.1328 25.3594C21.7705 24.8875 21.3148 23.963 21.7656 22.5859C22.0752 22.0796 22.5048 21.7411 23.0547 21.5703ZM48.5234 21.7266C49.1686 22.2413 49.7676 22.8142 50.3203 23.4453C49.7734 24.0443 49.2005 24.6172 48.6016 25.1641C48.0026 24.6172 47.4297 24.0443 46.8828 23.4453C47.4313 22.8708 47.9782 22.2979 48.5234 21.7266ZM13.6797 32.4297C14.4913 32.5075 14.6736 32.8851 14.2266 33.5625C13.5884 33.7047 13.2889 33.4573 13.3281 32.8203C13.4082 32.6495 13.5254 32.5192 13.6797 32.4297ZM23.4453 46.8047C24.0545 47.3748 24.6535 47.9608 25.2422 48.5625C24.6552 49.1626 24.0562 49.7485 23.4453 50.3203C22.8463 49.7734 22.2734 49.2005 21.7266 48.6016C22.3012 48.001 22.8741 47.402 23.4453 46.8047Z" fill="white"/>
<path opacity="0.93" fill-rule="evenodd" clip-rule="evenodd" d="M51.9609 41.2577C51.9609 41.4921 51.9609 41.7265 51.9609 41.9609C48.6016 45.2681 45.2682 48.6015 41.9609 51.9609C41.7266 51.9609 41.4922 51.9609 41.2578 51.9609C40.4637 50.5292 39.7085 49.0708 38.9922 47.5859C36.6317 46.6559 34.275 45.7184 31.9219 44.7734C29.6771 39.2424 27.4766 33.6956 25.3203 28.1327C25.3263 27.9922 25.3654 27.862 25.4375 27.7421C26.2057 26.9739 26.974 26.2056 27.7422 25.4374C27.9398 25.3263 28.1482 25.3003 28.3672 25.3593C33.8359 27.5468 39.3047 29.7343 44.7734 31.9218C45.743 34.2649 46.6805 36.6217 47.5859 38.9921C49.0709 39.7084 50.5292 40.4637 51.9609 41.2577ZM28.2109 26.8046C33.4256 28.8063 38.6209 30.8635 43.7969 32.9765C44.6071 35.0784 45.4274 37.1747 46.2578 39.2656C43.9271 41.5963 41.5963 43.927 39.2656 46.2577C37.1562 45.4244 35.0469 44.5911 32.9375 43.7577C30.893 38.6271 28.8487 33.497 26.8047 28.3671C26.8312 28.1704 26.9355 28.0792 27.1172 28.0937C29.7344 30.7109 32.3516 33.3281 34.9688 35.9452C34.6954 36.5058 34.5131 37.1047 34.4219 37.7421C34.3731 39.8718 35.3757 41.213 37.4297 41.7656C39.6944 41.982 41.1397 41.0055 41.7656 38.8359C42.0105 36.6282 41.086 35.1829 38.9922 34.4999C38.5782 34.4105 38.1616 34.3845 37.7422 34.4218C37.1048 34.5131 36.5059 34.6953 35.9453 34.9687C33.3281 32.3515 30.7109 29.7343 28.0938 27.1171C28.0703 26.9948 28.1094 26.8906 28.2109 26.8046ZM37.8203 35.7109C39.1623 35.6863 40.0348 36.3113 40.4375 37.5859C40.6167 39.0118 40.0308 39.9624 38.6797 40.4374C37.1084 40.6356 36.1318 39.9716 35.75 38.4452C35.6898 36.957 36.3798 36.0456 37.8203 35.7109ZM47.1172 40.3202C48.1529 40.786 49.1685 41.2938 50.1641 41.8437C47.3906 44.6171 44.6172 47.3906 41.8438 50.164C41.2819 49.1706 40.787 48.155 40.3594 47.1171C42.6277 44.8618 44.8803 42.5962 47.1172 40.3202Z" fill="white"/>
</g>
<defs>
<clipPath id="clip0_57_593">
<rect width="40" height="40" fill="white" transform="translate(12 12)"/>
</clipPath>
</defs>
</svg>

<svg xmlns="http://www.w3.org/2000/svg" width="64" height="64" fill="none"><circle cx="32" cy="32" r="32" fill="#61AA45"/><g fill="#fff" fill-rule="evenodd" clip-path="url(#a)" clip-rule="evenodd"><path d="M32.43 11.96h1.25c1.324.687 1.65 1.702.976 3.048-.656.785-1.463.994-2.422.625l-3.32 3.32c5.67-2.134 11.165-1.743 16.484 1.172.58.349 1.14.726 1.68 1.133l1.055-1.055c.25-.116.51-.142.781-.078a165.318 165.318 0 0 0 3.047 3.008v.625a160.599 160.599 0 0 1-2.969 3.008.946.946 0 0 1-.625.078 45.32 45.32 0 0 1-3.164-3.164.946.946 0 0 1 .078-.625l.82-.82c-4.67-3.254-9.748-4.087-15.234-2.5A15.408 15.408 0 0 0 26.336 22c.672 1.508.412 2.836-.781 3.984-1.13.824-2.327.941-3.594.352-3.181 4.85-3.845 10.033-1.992 15.547a16.457 16.457 0 0 0 2.265 4.219 4.328 4.328 0 0 1 1.055-.899.508.508 0 0 1 .39 0 45.32 45.32 0 0 1 3.165 3.164.946.946 0 0 1-.078.625 160.599 160.599 0 0 1-3.008 2.969h-.625a55.364 55.364 0 0 1-3.008-3.047 1.17 1.17 0 0 1 .078-.781l1.055-1.055c-3.233-4.507-4.313-9.494-3.242-14.96.268-1.09.58-2.159.937-3.204l-3.32 3.32c.382 1.013.148 1.847-.703 2.5-1.335.58-2.324.228-2.97-1.054v-1.25c.595-1.167 1.533-1.57 2.813-1.211l5.899-5.899a12.285 12.285 0 0 1-.39-1.172c-.239-2.013.608-3.302 2.538-3.867a5.662 5.662 0 0 1 1.328 0c.4.133.79.264 1.172.39l5.899-5.898c-.36-1.28.044-2.218 1.21-2.812Zm.312 1.33c.742-.08 1.016.233.82.937-.411.393-.776.34-1.093-.157a.756.756 0 0 1 .273-.78Zm-9.687 8.28c1.7-.006 2.442.828 2.226 2.5-.405.939-1.121 1.369-2.148 1.29-1.363-.473-1.818-1.397-1.367-2.774.31-.506.739-.845 1.289-1.016Zm25.468.157a13.948 13.948 0 0 1 1.797 1.718 26.768 26.768 0 0 1-1.718 1.72 26.744 26.744 0 0 1-1.72-1.72c.55-.574 1.096-1.147 1.641-1.718ZM13.68 32.43c.811.078.994.455.547 1.133-.639.142-.938-.106-.899-.743a.86.86 0 0 1 .352-.39Zm9.765 14.375c.61.57 1.209 1.156 1.797 1.758a57.02 57.02 0 0 1-1.797 1.757 26.741 26.741 0 0 1-1.718-1.718l1.718-1.797Z" opacity=".935"/><path d="M51.96 41.258v.703a904.821 904.821 0 0 0-10 10h-.702a86.508 86.508 0 0 1-2.266-4.375c-2.36-.93-4.717-1.868-7.07-2.813a1136.202 1136.202 0 0 1-6.602-16.64.814.814 0 0 1 .117-.39l2.305-2.306a.803.803 0 0 1 .625-.078l16.406 6.563c.97 2.343 1.907 4.7 2.813 7.07a86.547 86.547 0 0 1 4.375 2.266ZM28.21 26.805a795.67 795.67 0 0 1 15.587 6.172 666.23 666.23 0 0 0 2.46 6.289l-6.991 6.992-6.328-2.5-6.133-15.39c.026-.198.13-.289.312-.274l7.852 7.851a6.016 6.016 0 0 0-.547 1.797c-.049 2.13.954 3.471 3.008 4.024 2.264.216 3.71-.76 4.336-2.93.245-2.208-.68-3.653-2.774-4.336a4.148 4.148 0 0 0-1.25-.078 6.019 6.019 0 0 0-1.797.547l-7.851-7.852a.31.31 0 0 1 .117-.312Zm9.61 8.906c1.342-.025 2.215.6 2.617 1.875.18 1.426-.406 2.376-1.757 2.851-1.572.199-2.548-.465-2.93-1.992-.06-1.488.63-2.4 2.07-2.734Zm9.297 4.61c1.036.465 2.052.973 3.047 1.523l-8.32 8.32a27.332 27.332 0 0 1-1.485-3.047c2.269-2.255 4.521-4.52 6.758-6.797Z" opacity=".93"/></g><defs><clipPath id="a"><path fill="#fff" d="M12 12h40v40H12z"/></clipPath></defs></svg>
